icons/lines/archive-minus.svg

<svg xmlns="http://www.w3.org/2000/svg" width="24" height="24" viewBox="0 0 24 24" fill="none" stroke="currentColor" stroke-width="2" stroke-linecap="round" stroke-linejoin="round" >
  <path d="M14.5 10.65H9.5" stroke-miterlimit="10"/>
  <path d="M16.8203 2H7.18031C5.05031 2 3.32031 3.74 3.32031 5.86V19.95C3.32031 21.75 4.61031 22.51 6.19031 21.64L11.0703 18.93C11.5903 18.64 12.4303 18.64 12.9403 18.93L17.8203 21.64C19.4003 22.52 20.6903 21.76 20.6903 19.95V5.86C20.6803 3.74 18.9503 2 16.8203 2Z"/>
  </svg>

<svg xmlns="http://www.w3.org/2000/svg" width="24" height="24" viewBox="0 0 24 24" fill="none" stroke="currentColor" stroke-width="2" stroke-linecap="round" stroke-linejoin="round">
  <path d="M14.5 10.65h-5" />
  <path d="M7.18 2a3.87 3.87 0 0 0-3.86 3.86v14.09c0 1.8 1.29 2.56 2.87 1.69l4.88-2.71c.52-.29 1.36-.29 1.87 0l4.88 2.71c1.58.88 2.87.12 2.87-1.69V5.86A3.884 3.884 0 0 0 16.82 2z" />
</svg>
